X:0
T:Les oiseaux de passage
C:Paroles: J. Richepin - Musique : G. Brassens, fichier abc : Bernard Loffet
L:1/8
Q:420
K:C
M:4/4
 z4 E4 |: ^F2 "(1')"^G2 A2 B2 | [c2A,,2] A,2 A2 A,2 | [c2A,,2] [e2A,2] d2 [c2A,2] | \
 [B2G,,2] [G4G,4] [B2G,2] | [c2G,,2] [d2G,2] c2 [B2G,2] | [A2F,,2] F,2 c2 F,2 | [B2F,,2] [A2F,2] c2 [e2F,2] | \
 [d2G,,2] G,4 [e2G,2] | [e2E,,2] [e2E,2] g2 [e2E,2] | [c2A,,2] A,2 A2 A,2 | [c2A,,2] [e2A,2] d2 [c2A,2] | \
 [B2G,,2] [G4G,4] [B2G,2] | [c2G,,2] [d2G,2] c2 [B2G,2] | [A2F,,2] F,2 c2 F,2 | [e2E,,2] [d2E,2] c2 [B2E,2] | \
|1 [A2A,,2] A,4 [E2A,2] :|2 [A2A,,2] A,6 | \
W:Created with TablEdit http://www.tabledit.com/ by Bernard Loffet
